public/img/logos/unitedhealthcare-vector-logo.svg

<svg width="188" height="65" viewBox="0 0 188 65" fill="none" xmlns="http://www.w3.org/2000/svg">
<path d="M22.9527 55.7164C24.559 56.274 26.2443 56.5661 27.956 56.5396C35.4873 56.5396 40.7277 51.043 40.7277 40.581V9.38077L43.598 8V41.1121C43.598 51.7865 38.147 58 30.405 58C27.719 58 25.1383 57.2034 22.9527 55.7164ZM19.661 52.53C21.399 53.1142 23.137 53.4859 24.6643 53.4859C30.9843 53.4859 35.1977 49.4764 35.1977 40.4482V11.7706L38.0153 10.4164V40.6872C38.0153 50.1402 33.249 54.9995 26.6393 54.9995C24.2167 54.9995 21.7413 54.0967 19.661 52.53ZM17.686 49.7154C19.029 50.1668 20.451 50.4057 21.873 50.4588C26.7973 50.4588 29.8257 47.7504 29.8257 40.6075V14.1604L32.5907 12.8062V40.1561C32.5907 48.1753 28.9567 51.7865 23.7427 51.7865C21.5307 51.8131 19.3977 51.0696 17.686 49.7154ZM27.1923 41.3776V15.2756L15 20.8253V42.0149C15 46.051 17.528 48.7594 21.241 48.7594C24.954 48.7594 27.1923 45.9979 27.1923 41.3776ZM59.2663 15.2225V24.941C59.2663 28.5258 61.373 31.3404 65.402 31.3404C68.8517 31.3404 71.4587 28.7647 71.4587 24.8614V15.4615C71.4323 14.4259 72.2223 13.5497 73.2493 13.5231H73.2757L73.6443 13.4965V12.5672H67.5877V13.4965L67.9827 13.5231C69.0097 13.5497 69.826 14.3994 69.7997 15.4349V15.4615V24.5693C69.7997 27.5433 68.2723 29.3489 65.876 29.3489C63.4797 29.3489 62.0313 27.4371 62.0313 24.5427V15.196C62.0313 14.1869 62.5843 13.5762 63.7167 13.5231L64.0853 13.4965V12.5672H57.186V13.4965L57.581 13.5231C58.7133 13.6293 59.2663 14.1869 59.2663 15.2225ZM67.456 35.9873L67.851 36.0138C68.8253 36.0669 69.5363 36.4652 69.5363 37.5539V43.2629H62.716V37.5539C62.716 36.4387 63.4533 36.0935 64.4013 36.0138L64.77 35.9873V35.0579H57.8707V35.9873L58.2657 36.0138C59.24 36.0669 59.951 36.4652 59.951 37.5539V50.9368C59.951 52.0521 59.2137 52.4238 58.2657 52.4769L57.8707 52.5035V53.4328H64.77V52.5035L64.4013 52.4769C63.427 52.3972 62.716 52.0255 62.716 50.9368V44.6968H69.51V50.9368C69.51 52.0521 68.7727 52.4238 67.8247 52.4769L67.4297 52.5035V53.4328H74.329V52.5035L73.9603 52.4769C73.0123 52.3972 72.275 52.0255 72.275 50.9368V37.5539C72.275 36.4387 73.0123 36.0935 73.9603 36.0138L74.329 35.9873V35.0579H67.456V35.9873ZM73.6443 17.9841V18.8603L74.171 18.8869C74.961 18.94 75.4613 19.3383 75.4613 20.427V28.4992C75.4613 29.5879 74.9083 29.9862 74.0393 30.0393L73.6443 30.0659V30.9687H79.8063V30.0659L79.4377 30.0393C78.5423 29.9862 78.0157 29.5879 78.0157 28.4992V24.1976C78.0683 21.0377 79.4113 19.1524 81.0177 19.1524C82.229 19.1524 83.0453 20.0021 83.0453 21.6219V28.4727C83.0453 29.5613 82.4923 29.9596 81.6233 30.0127L81.2283 30.0393V30.9421H87.3903V30.0393L87.0217 30.0127C86.1263 29.9596 85.5997 29.5613 85.5997 28.4727V21.3032C85.5997 19.2586 84.362 17.5592 81.8867 17.5592C80.1487 17.5592 78.6213 18.6213 78.042 20.4801V17.6123L73.6443 17.9841ZM109.221 31.2342C111.854 31.2342 113.329 29.4286 113.934 27.384L112.802 27.0653C112.275 28.4726 111.38 29.5879 109.563 29.5879C107.456 29.5879 106.034 27.5698 106.034 24.3569H114.119V23.5868C114.119 20.2146 112.144 17.4796 108.957 17.4796C105.56 17.4796 103.296 20.7722 103.296 24.3569C103.296 27.9416 105.481 31.2342 109.221 31.2342ZM108.931 18.9665C110.353 18.9665 111.275 20.3208 111.38 23.0558H106.061C106.324 20.5332 107.377 18.9665 108.931 18.9665ZM96.4227 28.0212C96.4227 30.0659 97.634 31.2342 99.609 31.2342C101.426 31.2342 102.637 29.88 103.164 27.9681L102.216 27.7026C101.847 28.8178 101.242 29.4817 100.425 29.4817C99.3193 29.4817 98.977 28.6851 98.977 27.7292V19.2321H102.532V17.8779H98.977V13.8417H97.6867C97.1863 16.8954 95.659 17.9841 94.0527 18.3293V19.2586H96.449L96.4227 28.0212ZM90.9717 15.5146C91.9197 15.4881 92.657 14.6649 92.6307 13.709C92.6043 12.8062 91.867 12.0892 90.9717 12.0361C90.05 12.0361 89.3127 12.8062 89.3127 13.7355C89.26 14.718 89.9973 15.4881 90.9717 15.5146C90.9453 15.5146 90.9453 15.5146 90.9717 15.5146ZM89.7603 20.427V28.4992C89.7603 29.5879 89.2073 29.9862 88.3383 30.0393L87.9433 30.0659V30.9687H94.1053V30.0659L93.7367 30.0393C92.8413 29.9862 92.3147 29.5879 92.3147 28.4992V17.6389L87.8117 17.9841V18.8603L88.47 18.8869C89.26 18.8869 89.7603 19.3117 89.7603 20.427ZM120.755 31.2342C122.466 31.2342 123.809 30.3314 124.362 28.8178V30.9687H128.707V30.0924L128.339 30.0659C127.443 30.0127 126.917 29.6144 126.917 28.5258V12.2485L122.493 12.6468V13.5231L123.072 13.5497C123.862 13.5762 124.362 14.0011 124.362 15.0898V19.8163C123.783 18.3558 122.466 17.4796 120.755 17.4796C117.358 17.4796 115.409 20.7722 115.409 24.3569C115.409 27.9416 117.331 31.2342 120.755 31.2342ZM121.176 18.9665C123.098 18.9665 124.362 21.0643 124.362 24.3303C124.362 27.5964 123.125 29.6941 121.176 29.6941C119.359 29.6941 118.148 27.6229 118.148 24.3303C118.148 21.0377 119.359 18.9665 121.176 18.9665ZM159.465 39.9968C157.964 39.9968 156.647 41.0058 156.094 42.7849V40.103L151.723 40.4482V41.3245L152.249 41.351C153.039 41.4041 153.54 41.8024 153.54 42.8911V50.9634C153.54 52.0786 153.013 52.4504 152.118 52.5035L151.723 52.53V53.4328H157.885V52.53L157.516 52.5035C156.621 52.4504 156.094 52.052 156.094 50.9634V46.5555C156.147 43.2894 157.542 41.2183 159.28 41.2183C159.596 41.1917 159.912 41.3245 160.149 41.5635C159.702 41.8024 159.412 42.2804 159.412 42.7849C159.412 43.555 160.018 44.1657 160.781 44.1657C161.545 44.1657 162.151 43.5284 162.151 42.6522C162.151 41.0324 160.913 39.9968 159.465 39.9968ZM167.839 39.9437C164.442 39.9437 162.177 43.2098 162.177 46.821C162.177 50.4323 164.363 53.6984 168.102 53.6984C170.735 53.6984 172.21 51.8927 172.816 49.8481L171.683 49.5295C171.157 50.9368 170.261 52.052 168.444 52.052C166.338 52.052 164.916 50.034 164.916 46.821H173V46.051C173 42.6787 171.025 39.9437 167.839 39.9437ZM164.942 45.5199C165.205 42.9708 166.232 41.4307 167.812 41.4307C169.234 41.4307 170.156 42.7849 170.261 45.5199H164.942ZM149.511 51.2554V44.4047C149.511 41.59 147.773 39.9437 144.823 39.9437C142.295 39.9437 140.057 41.6166 140.057 43.5284C140.031 44.2985 140.636 44.9357 141.4 44.9357C142.164 44.9357 142.796 44.3516 142.796 43.5815C142.796 43.077 142.532 42.599 142.085 42.3601C142.559 41.6962 143.375 41.2979 144.402 41.2979C146.008 41.2979 146.956 42.4928 146.956 44.5109V45.1216L143.112 46.7414C140.531 47.8035 139.662 48.7594 139.662 50.4588C139.662 52.4238 141.058 53.6718 143.27 53.6718C144.902 53.6718 146.351 52.6362 146.93 51.0961V51.4944C146.93 52.8486 147.878 53.6452 149.432 53.6452C149.985 53.6452 150.538 53.5656 151.064 53.4063V52.53C149.985 52.6628 149.511 52.2379 149.511 51.2554ZM146.956 48.2815C146.825 50.5916 145.692 52.1317 144.086 52.1317C142.954 52.1317 142.216 51.3351 142.216 50.1402C142.216 49.0781 142.796 48.2284 143.875 47.7504L146.956 46.3696V48.2815ZM112.986 50.1668C112.618 51.2554 112.038 51.9458 111.196 51.9458C110.09 51.9458 109.747 51.1492 109.747 50.1933V41.6962H113.302V40.342H109.747V36.3059H108.457C107.957 39.3595 106.429 40.4482 104.823 40.7934V41.7228H107.219V50.4854C107.219 52.53 108.431 53.6984 110.406 53.6984C112.223 53.6984 113.434 52.3441 113.961 50.4323L112.986 50.1668ZM96.4753 51.2554V44.4047C96.4753 41.59 94.7373 39.9437 91.788 39.9437C89.26 39.9437 87.0217 41.6166 87.0217 43.5284C86.9953 44.2985 87.601 44.9357 88.3647 44.9357C89.1283 44.9357 89.7603 44.3516 89.7603 43.5815C89.7603 43.077 89.497 42.599 89.0493 42.3601C89.5233 41.6962 90.3397 41.2979 91.3667 41.2979C92.973 41.2979 93.921 42.4928 93.921 44.5109V45.1216L90.0763 46.7414C87.4957 47.8035 86.6267 48.7594 86.6267 50.4588C86.6267 52.4238 88.0223 53.6718 90.2343 53.6718C91.867 53.6718 93.3153 52.6362 93.8947 51.0961V51.4944C93.8947 52.8486 94.8427 53.6452 96.3963 53.6452C96.9493 53.6452 97.5023 53.5656 98.029 53.4063V52.53C96.9757 52.6628 96.4753 52.2379 96.4753 51.2554ZM93.9473 48.2815C93.8157 50.5916 92.6833 52.1317 91.077 52.1317C89.9447 52.1317 89.2073 51.3351 89.2073 50.1402C89.2073 49.0781 89.7867 48.2284 90.8663 47.7504L93.9473 46.3696V48.2815ZM134.501 52.0255C132.394 52.0255 130.972 50.0074 130.972 46.7945C130.972 43.5284 132.368 41.4573 134.474 41.4573C135.422 41.4573 136.133 41.7759 136.581 42.3601C136.186 42.6256 135.923 43.077 135.923 43.555C135.923 44.325 136.528 44.9357 137.292 44.9357C138.082 44.9357 138.661 44.2985 138.661 43.4222C138.661 41.8556 137.108 39.9172 134.316 39.9172C130.445 39.9172 128.207 43.1832 128.207 46.7945C128.207 50.3792 130.393 53.6718 134.132 53.6718C136.713 53.6718 138.161 51.9458 138.74 49.9809L137.608 49.6357C137.134 50.9899 136.265 52.0255 134.501 52.0255ZM103.059 50.9634V34.7393L98.6347 35.111V35.9873L99.214 36.0138C100.004 36.0404 100.504 36.4652 100.504 37.5539V50.9634C100.504 52.0786 99.9513 52.4504 99.0823 52.5035L98.6873 52.53V53.4328H104.849V52.5566L104.481 52.53C103.612 52.4504 103.059 52.052 103.059 50.9634ZM125.863 50.9634V43.7939C125.863 41.7493 124.626 40.0499 122.15 40.0499C120.412 40.0499 118.885 41.0855 118.306 42.9708V34.7393L113.882 35.111V35.9873L114.461 36.0138C115.251 36.0404 115.751 36.4652 115.751 37.5539V50.9634C115.751 52.0786 115.198 52.4504 114.329 52.5035L113.934 52.53V53.4328H120.07V52.5566L119.701 52.53C118.806 52.4769 118.279 52.0786 118.279 50.9899V46.6883C118.332 43.555 119.675 41.6431 121.281 41.6431C122.493 41.6431 123.309 42.4928 123.309 44.1126V50.9899C123.309 52.1052 122.756 52.4769 121.887 52.53L121.492 52.5566V53.4594H127.654V52.5566L127.285 52.53C126.39 52.4504 125.863 52.052 125.863 50.9634ZM80.5173 39.9437C77.1203 39.9437 74.8557 43.2363 74.8557 46.821C74.8557 50.4057 77.0413 53.6984 80.7807 53.6984C83.414 53.6984 84.8887 51.8927 85.4943 49.8481L84.362 49.5295C83.8353 50.9368 82.94 52.052 81.123 52.052C79.0163 52.052 77.5943 50.034 77.5943 46.821H85.6787V46.051C85.6787 42.6787 83.6773 39.9437 80.5173 39.9437ZM77.6207 45.5199C77.884 42.9708 78.911 41.4307 80.491 41.4307C81.913 41.4307 82.8347 42.7849 82.94 45.5199H77.6207Z" fill="#002677"/>
</svg>

<svg width="188" height="65" fill="none" xmlns="http://www.w3.org/2000/svg"><path d="M22.953 55.716c1.606.558 3.291.85 5.003.824 7.531 0 12.772-5.497 12.772-15.959v-31.2L43.598 8v33.112C43.598 51.786 38.147 58 30.405 58c-2.686 0-5.267-.797-7.452-2.284zM19.66 52.53c1.738.584 3.476.956 5.003.956 6.32 0 10.534-4.01 10.534-13.038V11.771l2.817-1.355v30.271C38.015 50.14 33.25 55 26.64 55c-2.422 0-4.898-.903-6.978-2.47zm-1.975-2.815c1.343.452 2.765.69 4.187.744 4.924 0 7.953-2.709 7.953-9.852V14.16l2.765-1.354v27.35c0 8.02-3.634 11.63-8.848 11.63a9.576 9.576 0 01-6.057-2.07zm9.506-8.337V15.276L15 20.826v21.189c0 4.036 2.528 6.744 6.241 6.744 3.713 0 5.951-2.761 5.951-7.381zm32.074-26.155v9.718c0 3.585 2.107 6.4 6.136 6.4 3.45 0 6.057-2.576 6.057-6.48v-9.4c-.027-1.035.763-1.911 1.79-1.938h.027l.368-.027v-.929h-6.056v.93l.395.026a1.863 1.863 0 011.817 1.912v9.134c0 2.974-1.528 4.78-3.924 4.78s-3.845-1.912-3.845-4.806v-9.347c0-1.01.553-1.62 1.686-1.673l.368-.027v-.929h-6.899v.93l.395.026c1.132.106 1.685.664 1.685 1.7zm8.19 20.764l.395.027c.974.053 1.685.451 1.685 1.54v5.709h-6.82v-5.71c0-1.114.737-1.46 1.685-1.54l.369-.026v-.93h-6.9v.93l.396.027c.974.053 1.685.451 1.685 1.54v13.383c0 1.115-.737 1.487-1.685 1.54l-.395.027v.929h6.899v-.93l-.369-.026c-.974-.08-1.685-.451-1.685-1.54v-6.24h6.794v6.24c0 1.115-.737 1.487-1.685 1.54l-.395.027v.929h6.899v-.93l-.369-.026c-.948-.08-1.685-.451-1.685-1.54V37.554c0-1.115.737-1.46 1.685-1.54l.369-.027v-.93h-6.873v.93zm6.188-18.003v.876l.527.027c.79.053 1.29.451 1.29 1.54v8.072c0 1.089-.553 1.487-1.422 1.54l-.395.027v.903h6.162v-.903l-.368-.027c-.896-.053-1.422-.451-1.422-1.54v-4.301c.052-3.16 1.395-5.046 3.002-5.046 1.211 0 2.027.85 2.027 2.47v6.85c0 1.09-.553 1.488-1.422 1.54l-.395.027v.903h6.162v-.903l-.368-.026c-.896-.053-1.422-.452-1.422-1.54v-7.17c0-2.044-1.238-3.744-3.713-3.744-1.738 0-3.266 1.062-3.845 2.921v-2.868l-4.398.372zm35.577 13.25c2.633 0 4.108-1.805 4.713-3.85l-1.132-.319c-.527 1.408-1.422 2.523-3.239 2.523-2.107 0-3.529-2.018-3.529-5.231h8.085v-.77c0-3.372-1.975-6.107-5.162-6.107-3.397 0-5.661 3.292-5.661 6.877s2.185 6.877 5.925 6.877zm-.29-12.268c1.422 0 2.344 1.355 2.449 4.09h-5.319c.263-2.523 1.316-4.09 2.87-4.09zm-12.508 9.055c0 2.045 1.211 3.213 3.186 3.213 1.817 0 3.028-1.354 3.555-3.266l-.948-.265c-.369 1.115-.974 1.779-1.791 1.779-1.106 0-1.448-.797-1.448-1.753v-8.497h3.555v-1.354h-3.555v-4.036h-1.29c-.5 3.053-2.028 4.142-3.634 4.487v.93h2.396l-.026 8.762zm-5.451-12.506c.948-.027 1.685-.85 1.659-1.806-.027-.903-.764-1.62-1.66-1.673-.921 0-1.658.77-1.658 1.7-.053.982.684 1.752 1.659 1.779-.027 0-.027 0 0 0zm-1.212 4.912v8.072c0 1.089-.553 1.487-1.422 1.54l-.395.027v.903h6.162v-.903l-.368-.027c-.896-.053-1.422-.451-1.422-1.54V17.64l-4.503.345v.876l.658.027c.79 0 1.29.425 1.29 1.54zm30.995 10.807c1.711 0 3.054-.903 3.607-2.416v2.15h4.345v-.876l-.368-.026c-.896-.053-1.422-.452-1.422-1.54V12.249l-4.424.398v.876l.579.027c.79.026 1.29.451 1.29 1.54v4.726c-.579-1.46-1.896-2.336-3.607-2.336-3.397 0-5.346 3.292-5.346 6.877s1.922 6.877 5.346 6.877zm.421-12.268c1.922 0 3.186 2.098 3.186 5.364s-1.237 5.364-3.186 5.364c-1.817 0-3.028-2.071-3.028-5.364 0-3.292 1.211-5.363 3.028-5.363zm38.289 21.03c-1.501 0-2.818 1.01-3.371 2.789v-2.682l-4.371.345v.877l.526.026c.79.053 1.291.451 1.291 1.54v8.072c0 1.116-.527 1.487-1.422 1.54l-.395.027v.903h6.162v-.903l-.369-.026c-.895-.054-1.422-.452-1.422-1.54v-4.408c.053-3.267 1.448-5.338 3.186-5.338a1.11 1.11 0 01.869.345 1.402 1.402 0 00-.737 1.222c0 .77.606 1.38 1.369 1.38.764 0 1.37-.637 1.37-1.513 0-1.62-1.238-2.655-2.686-2.655zm8.374-.052c-3.397 0-5.662 3.266-5.662 6.877 0 3.611 2.186 6.877 5.925 6.877 2.633 0 4.108-1.805 4.714-3.85l-1.133-.319c-.526 1.408-1.422 2.523-3.239 2.523-2.106 0-3.528-2.018-3.528-5.231H173v-.77c0-3.372-1.975-6.107-5.161-6.107zm-2.897 5.576c.263-2.55 1.29-4.09 2.87-4.09 1.422 0 2.344 1.355 2.449 4.09h-5.319zm-15.431 5.735v-6.85c0-2.815-1.738-4.461-4.688-4.461-2.528 0-4.766 1.673-4.766 3.584a1.35 1.35 0 001.343 1.408c.764 0 1.396-.584 1.396-1.355 0-.504-.264-.982-.711-1.22.474-.665 1.29-1.063 2.317-1.063 1.606 0 2.554 1.195 2.554 3.213v.61l-3.844 1.62c-2.581 1.063-3.45 2.018-3.45 3.718 0 1.965 1.396 3.213 3.608 3.213 1.632 0 3.081-1.036 3.66-2.576v.398c0 1.355.948 2.151 2.502 2.151.553 0 1.106-.08 1.632-.239v-.876c-1.079.133-1.553-.292-1.553-1.275zm-2.555-2.974c-.131 2.31-1.264 3.85-2.87 3.85-1.132 0-1.87-.796-1.87-1.99 0-1.063.58-1.913 1.659-2.39l3.081-1.381v1.912zm-33.97 1.886c-.368 1.088-.948 1.779-1.79 1.779-1.106 0-1.449-.797-1.449-1.753v-8.497h3.555v-1.354h-3.555v-4.036h-1.29c-.5 3.053-2.028 4.142-3.634 4.487v.93h2.396v8.762c0 2.045 1.212 3.213 3.187 3.213 1.817 0 3.028-1.354 3.555-3.266l-.975-.265zm-16.51 1.088v-6.85c0-2.815-1.739-4.461-4.688-4.461-2.528 0-4.766 1.673-4.766 3.584a1.35 1.35 0 001.343 1.408c.763 0 1.395-.584 1.395-1.355 0-.504-.263-.982-.71-1.22.473-.665 1.29-1.063 2.317-1.063 1.606 0 2.554 1.195 2.554 3.213v.61l-3.845 1.62c-2.58 1.063-3.45 2.018-3.45 3.718 0 1.965 1.396 3.213 3.608 3.213 1.633 0 3.081-1.036 3.66-2.576v.398c0 1.355.949 2.151 2.502 2.151.553 0 1.106-.08 1.633-.239v-.876c-1.053.133-1.554-.292-1.554-1.275zm-2.529-2.974c-.131 2.31-1.264 3.85-2.87 3.85-1.132 0-1.87-.796-1.87-1.99 0-1.063.58-1.913 1.66-2.39l3.08-1.381v1.912zm40.554 3.745c-2.107 0-3.529-2.019-3.529-5.232 0-3.266 1.396-5.337 3.502-5.337.948 0 1.659.319 2.107.903a1.467 1.467 0 00-.658 1.195c0 .77.605 1.38 1.369 1.38.79 0 1.369-.637 1.369-1.513 0-1.566-1.553-3.505-4.345-3.505-3.871 0-6.109 3.266-6.109 6.877 0 3.585 2.186 6.878 5.925 6.878 2.581 0 4.029-1.726 4.608-3.691l-1.132-.345c-.474 1.354-1.343 2.39-3.107 2.39zm-31.442-1.063V34.74l-4.424.372v.876l.579.027c.79.026 1.29.451 1.29 1.54v13.41c0 1.115-.553 1.486-1.422 1.54l-.395.026v.903h6.162v-.876l-.368-.027c-.869-.08-1.422-.478-1.422-1.567zm22.804 0v-7.17c0-2.044-1.237-3.743-3.713-3.743-1.738 0-3.265 1.036-3.844 2.92v-8.23l-4.424.371v.876l.579.027c.79.026 1.29.451 1.29 1.54v13.41c0 1.115-.553 1.486-1.422 1.54l-.395.026v.903h6.136v-.876l-.369-.027c-.895-.053-1.422-.451-1.422-1.54v-4.302c.053-3.133 1.396-5.045 3.002-5.045 1.212 0 2.028.85 2.028 2.47v6.877c0 1.115-.553 1.487-1.422 1.54l-.395.027v.902h6.162v-.902l-.369-.027c-.895-.08-1.422-.478-1.422-1.567zm-45.346-11.02c-3.397 0-5.661 3.293-5.661 6.878s2.185 6.877 5.925 6.877c2.633 0 4.108-1.805 4.713-3.85l-1.132-.319c-.527 1.408-1.422 2.523-3.239 2.523-2.107 0-3.529-2.018-3.529-5.231h8.085v-.77c0-3.372-2.002-6.107-5.162-6.107zM77.62 45.52c.263-2.55 1.29-4.09 2.87-4.09 1.422 0 2.344 1.355 2.449 4.09h-5.32z" fill="#002677"/></svg>
